X: 645
T: Herman's Rag
C:Herman Johnson (Texas)
B: jims roots
M:C|
L:1/8
R: County Rag
Q: 1/4=100
K:C
V:1 
%D:Voyager VRCD 345, Benny Thomasson &#8211; Say Old Man can You Play the Fiddle (1999)
"A7"bgeb gebg | ebge bge(^d | "D7"e)cAe cAec | AecA ecA(_B |
"G7"=B)c (3B/c/B/A GABd | eg z[G,D][[B4g] | ag z^f gage | "C"g6 eg ||
"A7"bgeb gebg | ebge bge(^d | "D7"e)cAe cAec | AecA ecA(_B |
"G7"=B)c (3B/c/B/A GABd | (3gag ^fa gdBd | g_gf_e dcAG | "C"[E8c] :|
"A7"a_ag^d  e=d^c=c | ^caec AG^FE | "D7" (3DE^F dA Fc2F | c^FBF A2BA |
"G7"GABd fa_ag | fdBG (3F/G/F/D B,G, |[1 "C"CA, C2 ECA,G, | CDEG cdeg :|
A^F (3EFE DC (3B,DB, | "G7"G,B,DG Bdeg | fa_ag fdBG | "C"c2dc ecAG | c8:|
V:2 C"C"B,DC ECA,G, | C8 |:[P:C Part
 A,"A7"^CEA ^ce"1"a^c' | e'^c'ae "3"c'ae^c | "D7"a2 ga ^fd (3cec |
% abcbook-tune_id 6298c25dbc48dade55fa2c64


% abcbook-boost 0
% abcbook-tablature 
% abcbook-transpose 
% abcbook-lastupdated 1654178398743
% abcbook-soundfonts 
% abcbook-repeats 1


